!!!!SEGMENT: pl-kk--kk-i-111--013-002_anonim--deo-gratias-confessoribus-2dum.krn
!!!cenid: 18xx:2585
!!!COM: Anonim
!!!COM-rismid: pe30004985
!!!CDT:
!!!CNT:
!!!GTL: Deo gratias
!!!OTL: Confessoribus 2dum
!!!OMV: 002
!!!PDT: 1824
!!!AGN: Sacred
!!!SMS-siglum: PL-Kk
!!!SMS-shelfmark: Kk.I.111
!!!SMS-shelfwork: 013-002 G
!!!SMS-variant:
!!!SMS-altvar:
!!!NIFC-rismid: 1001157700
!!!URL-scan: http://repozytorium.nifc.pl/skany/pl-kk-nut--i-111
!!!ONB-nifc: UWAGA: A, T1, T2. Podział na poszególne Deo gratias. A: skan 0004 (m.in)
**kern	**text	**kern	**text	**kern	**text
*part3	*part3	*part2	*part2	*part1	*part1
*staff3	*staff3	*staff2	*staff2	*staff1	*staff1
*I"Tenore Vagante.	*	*I"Tenore Chorale.	*	*I"Alto.	*
*I'T 2	*	*I'T 1	*	*I'A	*
*clefC4	*	*clefC4	*	*clefC3	*
*k[b-]	*	*k[b-]	*	*k[b-]	*
*f:	*	*f:	*	*f:	*
*M2/2	*	*M2/2	*	*M2/2	*
*met(c|)	*	*met(c|)	*	*met(c|)	*
*all\right	*	*all\right	*	*all\right	*
*2\right	*	*2\right	*	*2\right	*
=1	=1	=1	=1	=1	=1
!	!	!	!	!LO:TX:t=P:problem:all\right:global	!
!	!	!LO:TX:t=P:problem:kreska pseudotaktowa	!	!LO:TX:a:t=3.	!
1.F	De-	1F	De-	0r	.
!	!	!LO:TX:t=P:problem:kreska pseudotaktowa	!	!	!
.	.	1G	.	.	.
!LO:TX:t=P:problem:kreska pseudotaktowa	!	!	!	!	!
2E/	-o	.	.	.	.
=2	=2	=2	=2	=2	=2
!	!	!LO:TX:t=P:problem:kreska pseudotaktowa	!	!	!
2F/	.	1B-X	.	1r	.
!LO:TX:t=P:problem:kreska pseudotaktowa	!	!	!	!	!
2G/	.	.	.	.	.
!	!	!LO:TX:t=P:problem:kreska pseudotaktowa	!	!LO:TX:t=P:problem:kreska pseudotaktowa	!
2A\	gra-	1F	-o	1c	De-
!LO:TX:t=P:problem:kreska pseudotaktowa	!	!	!	!	!
2c\	.	.	.	.	.
=3	=3	=3	=3	=3	=3
!	!	!LO:TX:t=P:problem:kreska pseudotaktowa	!	!	!
2B-\	.	1G	.	2d\	-o
!LO:TX:t=P:problem:kreska pseudotaktowa	!	!	!	!LO:TX:t=P:problem:kreska pseudotaktowa	!
2G/	.	.	.	2e\	.
!	!	!LO:TX:t=P:problem:kreska pseudotaktowa	!	!	!
2A\	.	1F	.	2f\	.
!	!	!	!	!LO:TX:t=P:problem:kreska pseudotaktowa	!
1B-\	.	.	.	2d\	.
=4-	=4	=4	=4	=4	=4
!	!	!LO:TX:t=P:problem:kreska pseudotaktowa	!	!	!
.	.	1E-	.	2g\	gra-
!	!	!	!	!LO:TX:t=P:problem:kreska pseudotaktowa	!
1A\	.	.	.	2e-X\	.
!	!	!LO:TX:t=P:problem:kreska pseudotaktowa	!	!	!
.	.	1D	.	2f\	.
!LO:TX:t=P:problem:kreska pseudotaktowa	!	!	!	!LO:TX:t=P:problem:kreska pseudotaktowa	!
2G/	.	.	.	2d\	-ti-
=5	=5	=5	=5	=5	=5
!	!	!LO:TX:t=P:problem:kreska pseudotaktowa	!	!LO:TX:t=P:problem:kreska pseudotaktowa	!
2.G/	.	1C	.	1en	-as.
!LO:TX:t=P:problem:kreska pseudotaktowa	!	!	!	!	!
4G/	-ti-	.	.	.	.
!	!	!LO:TX:t=P:problem:kreska pseudotaktowa	!	!LO:TX:a:t=1.	!
1A	-as	1F	gra-	1r	.
=6	=6	=6	=6	=6	=6
!LO:TX:t=P:problem:kreska pseudotaktowa	!	!	!	!	!
!LO:TX:a:t=1	!	!LO:TX:t=P:problem:kreska pseudotaktowa	!	!LO:TX:t=P:problem:kreska pseudotaktowa	!
1r	.	1G	.	[1c	De-
!LO:TX:t=P:problem:kreska pseudotaktowa	!	!LO:TX:t=P:problem:kreska pseudotaktowa	!	!	!
1F	De-	1A	.	2c]	.
!	!	!	!	!LO:TX:t=P:problem:kreska pseudotaktowa	!
.	.	.	.	2d\	.
=7	=7	=7	=7	=7	=7
!	!	!LO:TX:t=P:problem:kreska pseudotaktowa	!	!LO:TX:t=P:problem:kreska pseudotaktowa	!
2G/	.	1c	.	1en	-o
1A\	-o	.	.	.	.
!	!	!LO:TX:t=P:problem:kreska pseudotaktowa	!	!	!
.	.	1A	.	2e\	gra-
!LO:TX:t=P:problem:kreska pseudotaktowa	!	!	!	!	!
2d\	.	.	.	1f\	.
=8	=8	=8	=8	=8-	=8
!	!	!LO:TX:t=P:problem:kreska pseudotaktowa	!	!	!
2B-\	gra-	1B-	.	.	.
1G/	.	.	.	1e-X\	.
!	!	!LO:TX:t=P:problem:kreska pseudotaktowa	!	!	!
.	.	1A	.	.	.
1F/	.	.	.	1d\	.
=9-	=9	=9	=9	=9-	=9
!	!	!LO:TX:t=P:problem:kreska pseudotaktowa	!	!	!
.	.	1G	.	.	.
!LO:TX:t=P:problem:kreska pseudotaktowa	!	!	!	!LO:TX:t=P:problem:kreska pseudotaktowa	!
2E/	-ti-	.	.	2c/	-ti-
!	!	!LO:TX:t=P:problem:kreska pseudotaktowa	!	!	!
2F/	-as	1F	.	2c\	-as
!LO:TX:t=P:problem:kreska pseudotaktowa	!	!	!	!	!
2c\	De-	.	.	1f\	De-
!LO:LB:g=original	!	!	!	!	!
=10	=10	=10	=10	=10-	=10
!	!	!LO:TX:t=P:problem:kreska pseudotaktowa	!	!	!
2d\	-o	1E	.	.	.
!LO:TX:t=P:problem:kreska pseudotaktowa	!	!	!	!LO:TX:t=P:problem:kreska pseudotaktowa	!
2B-\	.	.	.	2f\	-o
!LO:TX:t=P:problem:kreska pseudotaktowa	!	!	!	!	!
1d	.	2.G/	.	1.f	gra-
!	!	!LO:TX:t=P:problem:kreska pseudotaktowa	!	!	!
.	.	4G/	-ti-	.	.
=11	=11	=11	=11	=11-	=11
2.c\	gra-	0F;	-as.	.	.
!	!	!	!	!LO:TX:t=P:problem:kreska pseudotaktowa	!
.	.	.	.	2e\	-ti-
!LO:TX:t=P:problem:kreska pseudotaktowa	!	!	!	!	!
4c\	-ti-	.	.	.	.
!LO:N:vis=0	!	!	!	!LO:N:vis=0	!
1c;	-as.	.	.	1f;	-as.
==	==	==	==	==	==
*-	*-	*-	*-	*-	*-
!!!system-decoration: [(s1,s2,s3)]
!!!ENC: Kamil Watkowski
!!!END: 2021-08-04
